X:241
T: Ein Abendreihen vom Herrn Christo
N: A0287
O: Europa, Mitteleuropa, Deutschland
N: Nik. Hermann Historien von der Sindflut 1563.
R: Romanze, Ballade, Lied
M: 4/4
L: 1/4
K: F
F | ccFF | ccF2
c2dc | BAGG | F2z
G | GGGF | EFG2 | z
BAF | GGFF | F2z

